{ "compressionlevel":-1,
 "editorsettings":
    {
     "chunksize":
        {
         "height":8,
         "width":10
        }
    },
 "height":20,
 "infinite":true,
 "layers":[
        {
         "chunks":[
                {
                 "data":[30, 30, 30, 30, 30, 30, 30, 30, 30, 30,
                    30, 30, 30, 30, 30, 30, 30, 30, 30, 30,
                    30, 30, 30, 30, 30, 30, 30, 30, 30, 30,
                    30, 30, 30, 30, 30, 30, 30, 30, 30, 30,
                    30, 30, 30, 30, 30, 30, 30, 30, 30, 30,
                    30, 30, 30, 30, 30, 30, 30, 30, 30, 30,
                    30, 30, 30, 30, 30, 30, 30, 30, 30, 30,
                    34, 34, 34, 34, 34, 53, 34, 34, 34, 34],
                 "height":8,
                 "width":10,
                 "x":0,
                 "y":0
                }, 
                {
                 "data":[64, 64, 64, 64, 64, 64, 64, 64, 64, 64,
                    0, 0, 0, 0, 0, 0, 0, 0, 0, 0,
                    0, 0, 0, 0, 0, 0, 0, 0, 0, 0,
                    0, 0, 0, 0, 0, 0, 0, 0, 0, 0,
                    0, 0, 0, 0, 0, 0, 0, 0, 0, 0,
                    0, 0, 0, 0, 0, 0, 0, 0, 0, 0,
                    0, 0, 0, 0, 0, 0, 0, 0, 0, 0,
                    0, 0, 0, 0, 0, 0, 0, 0, 0, 0],
                 "height":8,
                 "width":10,
                 "x":0,
                 "y":8
                }],
         "height":32,
         "id":1,
         "name":"ground",
         "opacity":1,
         "startx":-16,
         "starty":-16,
         "type":"tilelayer",
         "visible":true,
         "width":32,
         "x":0,
         "y":0
        }, 
        {
         "draworder":"topdown",
         "id":4,
         "name":"objects",
         "objects":[
                {
                 "height":6.36363636363636,
                 "id":1,
                 "name":"exit",
                 "opacity":1,
                 "properties":[
                        {
                         "name":"destination_map",
                         "type":"string",
                         "value":"overworld"
                        }, 
                        {
                         "name":"spawn_poi",
                         "type":"string",
                         "value":"dungeon_1_exit"
                        }, 
                        {
                         "name":"type",
                         "type":"string",
                         "value":"portal"
                        }],
                 "rotation":0,
                 "type":"",
                 "visible":true,
                 "width":19.6363636363636,
                 "x":78.5151515151515,
                 "y":123.121212121212
                }, 
                {
                 "height":0,
                 "id":2,
                 "name":"entrance",
                 "opacity":1,
                 "point":true,
                 "rotation":0,
                 "type":"",
                 "visible":true,
                 "width":0,
                 "x":87.5492424242424,
                 "y":112.977272727273
                }],
         "opacity":1,
         "type":"objectgroup",
         "visible":true,
         "x":0,
         "y":0
        }, 
        {
         "chunks":[],
         "height":16,
         "id":3,
         "name":"cleanable",
         "opacity":1,
         "startx":-16,
         "starty":0,
         "type":"tilelayer",
         "visible":true,
         "width":32,
         "x":0,
         "y":0
        }, 
        {
         "chunks":[],
         "height":16,
         "id":2,
         "name":"interactable",
         "opacity":1,
         "startx":0,
         "starty":0,
         "type":"tilelayer",
         "visible":true,
         "width":16,
         "x":0,
         "y":0
        }],
 "nextlayerid":5,
 "nextobjectid":3,
 "orientation":"orthogonal",
 "renderorder":"right-down",
 "tiledversion":"1.12.1",
 "tileheight":16,
 "tilesets":[
        {
         "firstgid":1,
         "source":"goldcrawl_tileset.tsj"
        }],
 "tilewidth":16,
 "type":"map",
 "version":"1.10",
 "width":30
}