{ "compressionlevel":-1,
 "editorsettings":
    {
     "chunksize":
        {
         "height":8,
         "width":10
        }
    },
 "height":8,
 "infinite":true,
 "layers":[
        {
         "chunks":[
                {
                 "data":[0, 0, 0, 0, 0, 0, 0, 0, 0, 0,
                    0, 0, 0, 0, 0, 0, 0, 0, 0, 0,
                    0, 0, 0, 0, 0, 0, 0, 0, 0, 0,
                    0, 49, 48, 48, 48, 48, 48, 47, 0, 0,
                    0, 50, 54, 54, 54, 54, 54, 46, 0, 0,
                    0, 50, 54, 54, 54, 54, 54, 46, 0, 0,
                    0, 50, 54, 54, 54, 54, 54, 46, 0, 0,
                    0, 51, 52, 52, 53, 52, 52, 45, 0, 0],
                 "height":8,
                 "width":10,
                 "x":0,
                 "y":0
                }],
         "height":16,
         "id":1,
         "name":"ground",
         "opacity":1,
         "startx":0,
         "starty":0,
         "type":"tilelayer",
         "visible":true,
         "width":16,
         "x":0,
         "y":0
        }, 
        {
         "chunks":[
                {
                 "data":[0, 0, 0, 0, 0, 0, 0, 0, 0, 0,
                    0, 0, 0, 0, 0, 0, 0, 0, 0, 0,
                    0, 0, 0, 0, 0, 0, 0, 0, 0, 0,
                    0, 0, 0, 0, 0, 0, 0, 0, 0, 0,
                    0, 0, 0, 0, 65, 0, 0, 0, 0, 0,
                    0, 0, 0, 0, 0, 0, 0, 0, 0, 0,
                    0, 0, 0, 0, 0, 0, 0, 0, 0, 0,
                    0, 0, 0, 0, 0, 0, 0, 0, 0, 0],
                 "height":8,
                 "width":10,
                 "x":0,
                 "y":0
                }],
         "height":16,
         "id":3,
         "name":"entities",
         "opacity":1,
         "startx":0,
         "starty":0,
         "type":"tilelayer",
         "visible":true,
         "width":16,
         "x":0,
         "y":0
        }, 
        {
         "draworder":"topdown",
         "id":2,
         "name":"objects",
         "objects":[
                {
                 "height":0,
                 "id":1,
                 "name":"entrance",
                 "opacity":1,
                 "point":true,
                 "rotation":0,
                 "type":"",
                 "visible":true,
                 "width":0,
                 "x":71.9090909090909,
                 "y":116.515151515152
                }, 
                {
                 "height":5.09090909090909,
                 "id":3,
                 "name":"",
                 "opacity":1,
                 "properties":[
                        {
                         "name":"destination_map",
                         "type":"string",
                         "value":"overworld"
                        }, 
                        {
                         "name":"spawn_poi",
                         "type":"string",
                         "value":"info_house_exit"
                        }, 
                        {
                         "name":"type",
                         "type":"string",
                         "value":"portal"
                        }],
                 "rotation":0,
                 "type":"",
                 "visible":true,
                 "width":16.9090909090909,
                 "x":63.2727272727273,
                 "y":124.909090909091
                }, 
                {
                 "height":0,
                 "id":4,
                 "name":"welcome dialog",
                 "opacity":1,
                 "point":true,
                 "properties":[
                        {
                         "name":"dialog_text",
                         "type":"string",
                         "value":"Hi there, young adventurer! Why don't you go clean some dungeons for me?;You can press 'B' to sweep up the grime!;Thanks!"
                        }, 
                        {
                         "name":"type",
                         "type":"string",
                         "value":"dialog"
                        }],
                 "rotation":0,
                 "type":"",
                 "visible":true,
                 "width":0,
                 "x":71.2727272727273,
                 "y":70.9090909090909
                }],
         "opacity":1,
         "type":"objectgroup",
         "visible":true,
         "x":0,
         "y":0
        }],
 "nextlayerid":4,
 "nextobjectid":5,
 "orientation":"orthogonal",
 "renderorder":"right-down",
 "tiledversion":"1.12.1",
 "tileheight":16,
 "tilesets":[
        {
         "firstgid":1,
         "source":"goldcrawl_tileset.tsj"
        }],
 "tilewidth":16,
 "type":"map",
 "version":"1.10",
 "width":10
}